public/img/svgs/shapes/promotional-block-white-shape.svg

<svg width="290" height="128" viewBox="0 0 290 128" fill="none" xmlns="http://www.w3.org/2000/svg">
<g clip-path="url(#clip0)">
<path d="M233.143 72.3394C225.469 72.3394 218.416 68.9136 214.267 63.0138L189.583 28.1859C187.716 25.7118 185.02 25.3312 183.983 25.3312C182.946 25.3312 180.042 25.5215 178.382 28.1859L153.698 63.0138C149.549 68.9136 142.497 72.3394 134.822 72.3394C127.147 72.3394 120.094 68.9136 115.946 63.0138L91.2617 28.1859C89.3949 25.7118 86.6984 25.3312 85.6613 25.3312C84.6241 25.3312 81.7199 25.5215 80.0605 28.1859L55.3766 63.0138C51.228 68.9136 44.1752 72.3394 36.5003 72.3394C28.8254 72.3394 21.7729 68.9136 17.6243 63.0138L-7.05984 28.1859C-8.9267 25.7118 -11.6232 25.3312 -12.6603 25.3312C-13.6975 25.3312 -16.6014 25.5215 -18.2608 28.1859L-42.945 63.0138C-47.0936 68.9136 -54.1461 72.3394 -61.821 72.3394C-69.4959 72.3394 -76.5487 68.9136 -80.6973 63.0138L-105.381 28.1859C-107.248 25.7118 -109.945 25.3312 -110.982 25.3312C-112.019 25.3312 -114.923 25.5215 -116.582 28.1859L-141.267 63.0138C-145.415 68.9136 -152.468 72.3394 -160.143 72.3394C-167.817 72.3394 -174.87 68.9136 -179.019 63.0138L-203.703 28.1859C-205.57 25.7118 -208.266 25.3312 -209.303 25.3312C-210.341 25.3312 -213.245 25.5215 -214.904 28.1859L-239.588 63.0138C-243.737 68.9136 -250.789 72.3394 -258.464 72.3394C-266.139 72.3394 -273.192 68.9136 -277.34 63.0138L-302.024 28.1859C-303.891 25.7118 -306.588 25.3312 -307.625 25.3312C-308.662 25.3312 -311.566 25.5215 -313.226 28.1859L-337.91 63.0138C-342.058 68.9136 -349.111 72.3394 -356.786 72.3394C-364.461 72.3394 -371.513 68.9136 -375.662 63.0138L-412.584 11.0574C-414.866 7.63173 -413.829 3.25446 -410.303 1.16097C-406.569 -0.932508 -401.798 0.019072 -399.516 3.25445L-362.594 55.2109C-360.727 57.685 -358.03 58.0656 -356.993 58.0656C-355.956 58.0656 -353.052 57.8753 -351.393 55.2109L-326.708 20.3829C-322.56 14.4831 -315.507 11.0574 -307.832 11.0574C-300.157 11.0574 -293.105 14.4831 -288.956 20.3829L-264.272 55.2109C-262.405 57.685 -259.709 58.0656 -258.672 58.0656C-257.634 58.0656 -254.73 57.8753 -253.071 55.2109L-228.387 20.3829C-224.238 14.4831 -217.186 11.0574 -209.511 11.0574C-201.836 11.0574 -194.783 14.4831 -190.635 20.3829L-165.951 55.2109C-164.084 57.685 -161.387 58.0656 -160.35 58.0656C-159.313 58.0656 -156.409 57.8753 -154.749 55.2109L-130.065 20.3829C-125.917 14.4831 -118.864 11.0574 -111.189 11.0574C-103.514 11.0574 -96.4619 14.4831 -92.3133 20.3829L-67.6291 55.2109C-65.7623 57.685 -63.0658 58.0656 -62.0286 58.0656C-60.9915 58.0656 -58.0873 57.8753 -56.4279 55.2109L-31.7437 20.3829C-27.5952 14.4831 -20.5426 11.0574 -12.8677 11.0574C-5.19281 11.0574 1.85971 14.4831 6.0083 20.3829L30.6925 55.2109C32.5593 57.685 35.2558 58.0656 36.2929 58.0656C37.3301 58.0656 40.2343 57.8753 41.8937 55.2109L66.5776 20.3829C70.7262 14.4831 77.779 11.0574 85.4539 11.0574C93.1288 11.0574 100.181 14.4831 104.33 20.3829L129.014 55.2109C130.881 57.685 133.577 58.0656 134.615 58.0656C135.652 58.0656 138.556 57.8753 140.215 55.2109L164.899 20.3829C169.048 14.4831 176.1 11.0574 183.775 11.0574C191.45 11.0574 198.503 14.4831 202.651 20.3829L227.335 55.2109C229.202 57.685 231.899 58.0656 232.936 58.0656C233.973 58.0656 236.877 57.8753 238.537 55.2109L275.667 3.25445C277.948 -0.171244 282.926 -0.932508 286.453 1.16097C290.186 3.25446 291.016 7.82205 288.735 11.0574L251.812 63.0138C247.664 68.9136 240.611 72.3394 233.143 72.3394Z" fill="white"/>
<path d="M233.148 135.524C225.473 135.524 218.42 132.099 214.272 126.199L189.588 91.371C187.721 88.8969 185.024 88.5162 183.987 88.5162C182.95 88.5162 180.046 88.7066 178.386 91.371L153.702 126.199C149.554 132.099 142.501 135.524 134.826 135.524C127.151 135.524 120.099 132.099 115.95 126.199L91.266 91.371C89.3992 88.8969 86.7027 88.5162 85.6655 88.5162C84.6284 88.5162 81.7243 88.7066 80.0648 91.371L55.3809 126.199C51.2323 132.099 44.1795 135.524 36.5046 135.524C28.8297 135.524 21.7772 132.099 17.6286 126.199L-7.05556 91.371C-8.92241 88.8969 -11.6189 88.5162 -12.6561 88.5162C-13.6932 88.5162 -16.5971 88.7066 -18.2565 91.371L-42.9407 126.199C-47.0893 132.099 -54.1418 135.524 -61.8167 135.524C-69.4916 135.524 -76.5444 132.099 -80.693 126.199L-105.377 91.371C-107.244 88.8969 -109.941 88.5162 -110.978 88.5162C-112.015 88.5162 -114.919 88.7066 -116.578 91.371L-141.262 126.199C-145.411 132.099 -152.463 135.524 -160.138 135.524C-167.813 135.524 -174.866 132.099 -179.014 126.199L-203.699 91.371C-205.565 88.8969 -208.262 88.5162 -209.299 88.5162C-210.336 88.5162 -213.24 88.7066 -214.9 91.371L-239.584 126.199C-243.732 132.099 -250.785 135.524 -258.46 135.524C-266.135 135.524 -273.187 132.099 -277.336 126.199L-302.02 91.371C-303.887 88.8969 -306.584 88.5162 -307.621 88.5162C-308.658 88.5162 -311.562 88.7066 -313.221 91.371L-337.905 126.199C-342.054 132.099 -349.107 135.524 -356.782 135.524C-364.456 135.524 -371.509 132.099 -375.658 126.199L-412.58 74.2425C-414.862 70.8168 -413.825 66.4395 -410.298 64.346C-406.565 62.2526 -401.794 63.2041 -399.512 66.4395L-362.59 118.396C-360.723 120.87 -358.026 121.251 -356.989 121.251C-355.952 121.251 -353.048 121.06 -351.388 118.396L-326.704 83.568C-322.556 77.6682 -315.503 74.2425 -307.828 74.2425C-300.153 74.2425 -293.101 77.6682 -288.952 83.568L-264.268 118.396C-262.401 120.87 -259.704 121.251 -258.667 121.251C-257.63 121.251 -254.726 121.06 -253.067 118.396L-228.383 83.568C-224.234 77.6682 -217.182 74.2425 -209.507 74.2425C-201.832 74.2425 -194.779 77.6682 -190.63 83.568L-165.946 118.396C-164.08 120.87 -161.383 121.251 -160.346 121.251C-159.309 121.251 -156.405 121.06 -154.745 118.396L-130.061 83.568C-125.912 77.6682 -118.86 74.2425 -111.185 74.2425C-103.51 74.2425 -96.4576 77.6682 -92.309 83.568L-67.6248 118.396C-65.758 120.87 -63.0615 121.251 -62.0243 121.251C-60.9872 121.251 -58.0831 121.06 -56.4236 118.396L-31.7395 83.568C-27.5909 77.6682 -20.5383 74.2425 -12.8634 74.2425C-5.18852 74.2425 1.86403 77.6682 6.01262 83.568L30.6968 118.396C32.5636 120.87 35.2601 121.251 36.2973 121.251C37.3344 121.251 40.2386 121.06 41.898 118.396L66.5819 83.568C70.7305 77.6682 77.7833 74.2425 85.4582 74.2425C93.1331 74.2425 100.186 77.6682 104.334 83.568L129.018 118.396C130.885 120.87 133.582 121.251 134.619 121.251C135.656 121.251 138.56 121.06 140.219 118.396L164.904 83.568C169.052 77.6682 176.105 74.2425 183.78 74.2425C191.454 74.2425 198.507 77.6682 202.656 83.568L227.34 118.396C229.207 120.87 231.903 121.251 232.94 121.251C233.978 121.251 236.881 121.06 238.541 118.396L275.464 66.4395C277.745 63.0138 282.723 62.2526 286.25 64.346C289.983 66.4395 290.813 71.0071 288.531 74.2425L251.609 126.199C247.668 132.099 240.615 135.524 233.148 135.524Z" fill="white"/>
<path d="M233.148 198.71C225.473 198.71 218.42 195.284 214.272 189.384L189.588 154.556C187.721 152.082 185.024 151.702 183.987 151.702C182.95 151.702 180.046 151.892 178.386 154.556L153.702 189.384C149.554 195.284 142.501 198.71 134.826 198.71C127.151 198.71 120.099 195.284 115.95 189.384L91.266 154.556C89.3992 152.082 86.7027 151.702 85.6655 151.702C84.6284 151.702 81.7243 151.892 80.0648 154.556L55.3809 189.384C51.2323 195.284 44.1795 198.71 36.5046 198.71C28.8297 198.71 21.7772 195.284 17.6286 189.384L-7.05556 154.556C-8.92241 152.082 -11.6189 151.702 -12.6561 151.702C-13.6932 151.702 -16.5971 151.892 -18.2565 154.556L-42.9407 189.384C-47.0893 195.284 -54.1418 198.71 -61.8167 198.71C-69.4916 198.71 -76.5444 195.284 -80.693 189.384L-105.377 154.556C-107.244 152.082 -109.941 151.702 -110.978 151.702C-112.015 151.702 -114.919 151.892 -116.578 154.556L-141.262 189.384C-145.411 195.284 -152.463 198.71 -160.138 198.71C-167.813 198.71 -174.866 195.284 -179.014 189.384L-203.699 154.556C-205.565 152.082 -208.262 151.702 -209.299 151.702C-210.336 151.702 -213.24 151.892 -214.9 154.556L-239.584 189.384C-243.732 195.284 -250.785 198.71 -258.46 198.71C-266.135 198.71 -273.187 195.284 -277.336 189.384L-302.02 154.556C-303.887 152.082 -306.584 151.702 -307.621 151.702C-308.658 151.702 -311.562 151.892 -313.221 154.556L-337.905 189.384C-342.054 195.284 -349.107 198.71 -356.782 198.71C-364.456 198.71 -371.509 195.284 -375.658 189.384L-412.58 137.428C-414.862 134.002 -413.825 129.625 -410.298 127.531C-406.565 125.438 -401.794 126.389 -399.512 129.625L-362.59 181.581C-360.723 184.055 -358.026 184.436 -356.989 184.436C-355.952 184.436 -353.048 184.246 -351.388 181.581L-326.704 146.753C-322.556 140.853 -315.503 137.428 -307.828 137.428C-300.153 137.428 -293.101 140.853 -288.952 146.753L-264.268 181.581C-262.401 184.055 -259.704 184.436 -258.667 184.436C-257.63 184.436 -254.726 184.246 -253.067 181.581L-228.383 146.753C-224.234 140.853 -217.182 137.428 -209.507 137.428C-201.832 137.428 -194.779 140.853 -190.63 146.753L-165.946 181.581C-164.08 184.055 -161.383 184.436 -160.346 184.436C-159.309 184.436 -156.405 184.246 -154.745 181.581L-130.061 146.753C-125.912 140.853 -118.86 137.428 -111.185 137.428C-103.51 137.428 -96.4576 140.853 -92.309 146.753L-67.6248 181.581C-65.758 184.055 -63.0615 184.436 -62.0243 184.436C-60.9872 184.436 -58.0831 184.246 -56.4236 181.581L-31.7395 146.753C-27.5909 140.853 -20.5383 137.428 -12.8634 137.428C-5.18852 137.428 1.86403 140.853 6.01262 146.753L30.6968 181.581C32.5636 184.055 35.2601 184.436 36.2973 184.436C37.3344 184.436 40.2386 184.246 41.898 181.581L66.5819 146.753C70.7305 140.853 77.7833 137.428 85.4582 137.428C93.1331 137.428 100.186 140.853 104.334 146.753L129.018 181.581C130.885 184.055 133.582 184.436 134.619 184.436C135.656 184.436 138.56 184.246 140.219 181.581L164.904 146.753C169.052 140.853 176.105 137.428 183.78 137.428C191.454 137.428 198.507 140.853 202.656 146.753L227.34 181.581C229.207 184.055 231.903 184.436 232.94 184.436C233.978 184.436 236.881 184.246 238.541 181.581L275.464 129.625C277.745 126.199 282.723 125.438 286.25 127.531C289.983 129.625 290.813 134.192 288.531 137.428L251.609 189.384C247.668 195.284 240.615 198.71 233.148 198.71Z" fill="white"/>
</g>
<defs>
<clipPath id="clip0">
<rect width="290" height="128" fill="white"/>
</clipPath>
</defs>
</svg>

<svg width="290" height="128" fill="none" xmlns="http://www.w3.org/2000/svg"><g clip-path="url(#clip0)" fill="#fff"><path d="M233.143 72.34c-7.674 0-14.727-3.426-18.876-9.326l-24.684-34.828c-1.867-2.474-4.563-2.855-5.6-2.855s-3.941.19-5.601 2.855l-24.684 34.828c-4.149 5.9-11.201 9.325-18.876 9.325-7.675 0-14.728-3.425-18.876-9.325L91.262 28.186c-1.867-2.474-4.564-2.855-5.6-2.855-1.038 0-3.942.19-5.602 2.855L55.378 63.014c-4.149 5.9-11.202 9.325-18.877 9.325-7.675 0-14.727-3.425-18.876-9.325L-7.06 28.186c-1.867-2.474-4.563-2.855-5.6-2.855s-3.941.19-5.6 2.855l-24.685 34.828c-4.149 5.9-11.201 9.325-18.876 9.325-7.675 0-14.728-3.425-18.876-9.325l-24.684-34.828c-1.867-2.474-4.564-2.855-5.601-2.855s-3.941.19-5.6 2.855l-24.685 34.828c-4.148 5.9-11.201 9.325-18.876 9.325-7.674 0-14.727-3.425-18.876-9.325l-24.684-34.828c-1.867-2.474-4.563-2.855-5.6-2.855-1.038 0-3.942.19-5.601 2.855l-24.684 34.828c-4.149 5.9-11.201 9.325-18.876 9.325-7.675 0-14.728-3.425-18.876-9.325l-24.684-34.828c-1.867-2.474-4.564-2.855-5.601-2.855s-3.941.19-5.601 2.855l-24.684 34.828c-4.148 5.9-11.201 9.325-18.876 9.325-7.675 0-14.727-3.425-18.876-9.325l-36.922-51.957c-2.282-3.425-1.245-7.803 2.281-9.896 3.734-2.094 8.505-1.142 10.787 2.093l36.922 51.957c1.867 2.474 4.564 2.855 5.601 2.855s3.941-.19 5.6-2.855l24.685-34.828c4.148-5.9 11.201-9.326 18.876-9.326 7.675 0 14.727 3.426 18.876 9.326l24.684 34.828c1.867 2.474 4.563 2.855 5.6 2.855 1.038 0 3.942-.19 5.601-2.855l24.684-34.828c4.149-5.9 11.201-9.326 18.876-9.326 7.675 0 14.728 3.426 18.876 9.326l24.684 34.828c1.867 2.474 4.564 2.855 5.601 2.855s3.941-.19 5.601-2.855l24.684-34.828c4.148-5.9 11.201-9.326 18.876-9.326 7.675 0 14.727 3.426 18.876 9.326L-67.63 55.21c1.867 2.474 4.563 2.855 5.6 2.855 1.038 0 3.942-.19 5.601-2.855l24.684-34.828c4.149-5.9 11.201-9.326 18.876-9.326 7.675 0 14.728 3.426 18.876 9.326L30.692 55.21c1.867 2.474 4.564 2.855 5.6 2.855 1.038 0 3.942-.19 5.602-2.855l24.684-34.828c4.148-5.9 11.201-9.326 18.876-9.326 7.675 0 14.727 3.426 18.876 9.326l24.684 34.828c1.867 2.474 4.563 2.855 5.601 2.855 1.037 0 3.941-.19 5.6-2.855l24.684-34.828c4.149-5.9 11.201-9.326 18.876-9.326 7.675 0 14.728 3.426 18.876 9.326l24.684 34.828c1.867 2.474 4.564 2.855 5.601 2.855s3.941-.19 5.601-2.855l37.13-51.957c2.281-3.425 7.259-4.187 10.786-2.093 3.733 2.093 4.563 6.661 2.282 9.896l-36.923 51.957c-4.148 5.9-11.201 9.325-18.669 9.325z"/><path d="M233.148 135.524c-7.675 0-14.728-3.425-18.876-9.325l-24.684-34.828c-1.867-2.474-4.564-2.855-5.601-2.855s-3.941.19-5.601 2.855l-24.684 34.828c-4.148 5.9-11.201 9.325-18.876 9.325-7.675 0-14.727-3.425-18.876-9.325L91.266 91.371c-1.867-2.474-4.563-2.855-5.6-2.855-1.038 0-3.942.19-5.601 2.855L55.38 126.199c-4.149 5.9-11.202 9.325-18.876 9.325-7.675 0-14.728-3.425-18.876-9.325L-7.056 91.371c-1.866-2.474-4.563-2.855-5.6-2.855s-3.941.19-5.6 2.855l-24.685 34.828c-4.148 5.9-11.2 9.325-18.876 9.325-7.675 0-14.727-3.425-18.876-9.325l-24.684-34.828c-1.867-2.474-4.564-2.855-5.601-2.855s-3.941.19-5.6 2.855l-24.684 34.828c-4.149 5.9-11.201 9.325-18.876 9.325-7.675 0-14.728-3.425-18.876-9.325l-24.685-34.828c-1.866-2.474-4.563-2.855-5.6-2.855s-3.941.19-5.601 2.855l-24.684 34.828c-4.148 5.9-11.201 9.325-18.876 9.325-7.675 0-14.727-3.425-18.876-9.325l-24.684-34.828c-1.867-2.474-4.564-2.855-5.601-2.855s-3.941.19-5.6 2.855l-24.684 34.828c-4.149 5.9-11.202 9.325-18.877 9.325-7.674 0-14.727-3.425-18.876-9.325l-36.922-51.956c-2.282-3.426-1.245-7.803 2.282-9.897 3.733-2.093 8.504-1.142 10.786 2.093l36.922 51.957c1.867 2.474 4.564 2.855 5.601 2.855s3.941-.191 5.601-2.855l24.684-34.828c4.148-5.9 11.201-9.325 18.876-9.325 7.675 0 14.727 3.425 18.876 9.325l24.684 34.828c1.867 2.474 4.564 2.855 5.601 2.855s3.941-.191 5.6-2.855l24.684-34.828c4.149-5.9 11.201-9.325 18.876-9.325 7.675 0 14.728 3.425 18.877 9.325l24.684 34.828c1.866 2.474 4.563 2.855 5.6 2.855s3.941-.191 5.601-2.855l24.684-34.828c4.149-5.9 11.201-9.325 18.876-9.325 7.675 0 14.727 3.425 18.876 9.325l24.684 34.828c1.867 2.474 4.563 2.855 5.6 2.855 1.038 0 3.942-.191 5.601-2.855l24.684-34.828c4.15-5.9 11.202-9.325 18.877-9.325 7.674 0 14.727 3.425 18.876 9.325l24.684 34.828c1.867 2.474 4.563 2.855 5.6 2.855s3.942-.191 5.601-2.855l24.684-34.828c4.149-5.9 11.201-9.325 18.876-9.325 7.675 0 14.728 3.425 18.876 9.325l24.684 34.828c1.867 2.474 4.564 2.855 5.601 2.855s3.941-.191 5.6-2.855l24.685-34.828c4.148-5.9 11.201-9.325 18.876-9.325 7.674 0 14.727 3.425 18.876 9.325l24.684 34.828c1.867 2.474 4.563 2.855 5.6 2.855 1.038 0 3.941-.191 5.601-2.855l36.923-51.957c2.281-3.425 7.259-4.186 10.786-2.093 3.733 2.093 4.563 6.661 2.281 9.897l-36.922 51.956c-3.941 5.9-10.994 9.325-18.461 9.325z"/><path d="M233.148 198.71c-7.675 0-14.728-3.426-18.876-9.326l-24.684-34.828c-1.867-2.474-4.564-2.854-5.601-2.854s-3.941.19-5.601 2.854l-24.684 34.828c-4.148 5.9-11.201 9.326-18.876 9.326-7.675 0-14.727-3.426-18.876-9.326l-24.684-34.828c-1.867-2.474-4.563-2.854-5.6-2.854-1.038 0-3.942.19-5.601 2.854L55.38 189.384c-4.149 5.9-11.202 9.326-18.876 9.326-7.675 0-14.728-3.426-18.876-9.326l-24.685-34.828c-1.866-2.474-4.563-2.854-5.6-2.854s-3.941.19-5.6 2.854l-24.685 34.828c-4.148 5.9-11.2 9.326-18.876 9.326-7.675 0-14.727-3.426-18.876-9.326l-24.684-34.828c-1.867-2.474-4.564-2.854-5.601-2.854s-3.941.19-5.6 2.854l-24.684 34.828c-4.149 5.9-11.201 9.326-18.876 9.326-7.675 0-14.728-3.426-18.876-9.326l-24.685-34.828c-1.866-2.474-4.563-2.854-5.6-2.854s-3.941.19-5.601 2.854l-24.684 34.828c-4.148 5.9-11.201 9.326-18.876 9.326-7.675 0-14.727-3.426-18.876-9.326l-24.684-34.828c-1.867-2.474-4.564-2.854-5.601-2.854s-3.941.19-5.6 2.854l-24.684 34.828c-4.149 5.9-11.202 9.326-18.877 9.326-7.674 0-14.727-3.426-18.876-9.326l-36.922-51.956c-2.282-3.426-1.245-7.803 2.282-9.897 3.733-2.093 8.504-1.142 10.786 2.094l36.922 51.956c1.867 2.474 4.564 2.855 5.601 2.855s3.941-.19 5.601-2.855l24.684-34.828c4.148-5.9 11.201-9.325 18.876-9.325 7.675 0 14.727 3.425 18.876 9.325l24.684 34.828c1.867 2.474 4.564 2.855 5.601 2.855s3.941-.19 5.6-2.855l24.684-34.828c4.149-5.9 11.201-9.325 18.876-9.325 7.675 0 14.728 3.425 18.877 9.325l24.684 34.828c1.866 2.474 4.563 2.855 5.6 2.855s3.941-.19 5.601-2.855l24.684-34.828c4.149-5.9 11.201-9.325 18.876-9.325 7.675 0 14.727 3.425 18.876 9.325l24.684 34.828c1.867 2.474 4.563 2.855 5.6 2.855 1.038 0 3.942-.19 5.601-2.855l24.684-34.828c4.15-5.9 11.202-9.325 18.877-9.325 7.674 0 14.727 3.425 18.876 9.325l24.684 34.828c1.867 2.474 4.563 2.855 5.6 2.855s3.942-.19 5.601-2.855l24.684-34.828c4.149-5.9 11.201-9.325 18.876-9.325 7.675 0 14.728 3.425 18.876 9.325l24.684 34.828c1.867 2.474 4.564 2.855 5.601 2.855s3.941-.19 5.6-2.855l24.685-34.828c4.148-5.9 11.201-9.325 18.876-9.325 7.674 0 14.727 3.425 18.876 9.325l24.684 34.828c1.867 2.474 4.563 2.855 5.6 2.855 1.038 0 3.941-.19 5.601-2.855l36.923-51.956c2.281-3.426 7.259-4.187 10.786-2.094 3.733 2.094 4.563 6.661 2.281 9.897l-36.922 51.956c-3.941 5.9-10.994 9.326-18.461 9.326z"/></g><defs><clipPath id="clip0"><path fill="#fff" d="M0 0h290v128H0z"/></clipPath></defs></svg>
